X: 13780
T: Fort Of The Fairy Queen, The
R: reel
M: 4/4
K: Dmajor
|:d2 d2 A3G|F2 ED E2 A2|FG A2 GA B2|A2 GF E2 A2|
d4 A3G|F2 ED E2 A2|FGAF GFED|1 dccd d4:|2 dccd d3d/e/||
|:f2 f2 f2 ed|e2 c2 c2 Bc|d2 B2 e3d|c>BA^G A4|
B2 dB GBGB|A2 dA FAFA|GBeB FAdA|GFEA c3d/e/|
d4 A3G|F2 ED E2 A2|FGAF GFED|1 dccd d3d/e/:|2 dccd d4|

